usr/share/icons/biglinux-icons-material/symbolic/status/network-cellular-signal-low-symbolic.svg

<svg width="16" height="16.001" version="1.1" xmlns="http://www.w3.org/2000/svg">
 <rect y="11" width="3" height="3" rx="0" ry="0" fill="#333333"/>
 <path d="m4 8v6h3v-6h-3zm1 1h1v4h-1v-4z" fill="#333333"/>
 <path d="m8 5v9h3v-9h-3zm1 1h1v7h-1v-7z" fill="#333333"/>
 <path d="m12 2v12h3v-12zm1 1h1v10h-1z" fill="#333333"/>
</svg>

<svg xmlns="http://www.w3.org/2000/svg" width="16" height="16.001"><rect width="3" height="3" y="11" fill="#333" rx="0" ry="0"/><path fill="#333" d="M4 8v6h3V8H4zm1 1h1v4H5V9zM8 5v9h3V5H8zm1 1h1v7H9V6zM12 2v12h3V2zm1 1h1v10h-1z"/></svg>
